X: 1
T:Jump at the Sun
M:6/8
L:1/8
C:John Kirkpatrick
K:G
EGB ^A2B|EGB ^A2B|eBB eBB|BAG F3|EGB ^A2B|EGB ^A2B|eBB cBA|1GAF 
E3:|2GA F E2
||:B|eBB gfe|fBB agf|gfe gfe|f^dB c2B|eBB gfe|fBB agf|eBB cBA|1GAF 
E2:|2GAF E3||
